X: 131
T: Adventures I Seek
C: Teton Sioux band 1911-1914
N: Derived from sioux130.krn
O: South Dakota, U.S.A.
N: Teton Sioux Music by Frances Densmore, 1918
Z: transcribed to **kern format by Craig Sapp
L: 1/8
M: 2/4
Q: 1/4=58
K: Bb clef=bass
%%linebreak <none>
F D D F [I:setbarnb 2]| 
F2D F/ E/ | 
D2C D/ C/ ||  
[M:3/4]B,2B, B, B, B, | 
B,4B, B, | 
D D D D C D/ C/ ||  
[M:2/4]B,2G, B, ||  
[M:3/4]F,2D, D, D, D, | 
D, D,D,2F, F, | 
B,/ B,/ CB,2G, B, | 
F,2D, F,D,2 ||  
[M:2/4]B,, B,,B,,2 | 
B,,3B,, ||  
[M:3/4]B,,4D D | 
F FF2D (F/ E/) ||  
[M:2/4]D2C D/ C/ | 
B,2B, B, | 
B, B,B,2- | 
B,2B, B, ||  
[M:3/4]D D D D C (D/ C/) ||  
[M:2/4]B, B, G, B, ||  
[M:3/4]F,2D, D, D, D, | 
D, D,D,2F, F, | 
B,/ B,/ CB,2G, B, | 
F,2D, F,D,2 ||  
[M:2/4]B,, B,,B,,2 | 
B,,4 |]  



